X:70
T: RUNDGESANG UND GERSTENSAFT
N: B0556
O: Europa, Mitteleuropa, Deutschland
R: Studenten -, Trink - Lied, Rund - Gesang
M: 2/4
L: 1/16
K: Bb
 | F3GF2E2 | D2F2B4 |
c2c2A2F2 | F2d2B4 |
F3GF2E2 | D2F2B4 |
c2c2A2F2 | F2d2B4 |
c2c2f2f2 | d2d2B4 |
c2c2A2F2 | F2d2B2d2 | c4A2
F2 | F2d2B4 | c2c2f2f2 | B4z4

@@@ Tune index: 2288
